X:1
T:AGNUS  DEI
T:SAMUEL WEBBE
T:              AGNUS  DEI
C:SAMUEL WEBBE
%%score [ 1 2 ] { ( 3 4 5 ) ( 6 7 ) }
L:1/8
M:4/4
K:Ab
V:1 treble nm="SOPRANO" snm="S."
V:2 treble nm="ALTO" snm="A."
V:3 treble nm="P3"
V:4 treble 
V:5 treble 
V:6 bass nm="ORGANO" snm="Org."
V:7 bass 
V:1
!p!"^Larghetto" c4 c4 | A2 F2 z4 | d4 B4 | A2 G2 z2 G2 | A4 B3 B | c4 d4 | (c4 B4) | A8 | %8
w: A- gnus|De- i,|A- gnus|De- i, qui|tol- lis pec\-|ca- ta|mun- *|di:|
!p! c6"^-" c2 | c4 B4 | (A2 G2) (A2 B2) | c4 c4 | d6 d2 | c4 F4 | (A4 G4) | F8 || z8 | z8 | z8 | %19
w: mi- se-|re- re,|mi- * se- *|re- re,|mi- se-|re- re|no- *|bis.||||
 z8 | z8 | z8 | z8 | z8 | c6"^-" c2 | c4 B4 | (A2 G2) (A2 B2) | c4 c4 | d6 d2 | c4 F4 | (A4 G4) | %31
w: |||||mi- se-|re- re,|mi- * se- *|re- re,|mi- se-|re- re|no- *|
 F8 ||!mf! f4 e4 | d4 c2 c2 | c2 c>c B2 A2 | G4 G4 |!p! (F2 A2) (G2 F2) | (=E2 d2) (c2 B2) | %38
w: bis.|A- gnus|De- i, qui|tol- lis pec- ca- ta|mun- di:|do- * na *|no- * bis *|
 (A4 G4) | F8 |] %40
w: pa- *|cem.|
V:2
 z8 | z8 | z8 | z8 | z8 | z8 | z8 | z8 |!p! (A,2 B,2) (C2 D2) | E4 =E4 | F4 D4 | C4 A,4 | B,6 B,2 | %13
w: ||||||||mi- * se- *|re- re,|mi- se-|re- re,|mi- se-|
 C4 D4 | C8 | F8 || A6 B2 | A4 G4 | B6 D2 | D2 C2 z2 E2 | A4 G2 A2 | F4 D4 | E8 | A,8 | %24
w: re- re|no-|bis.|A- gnus|De- i,|A- gnus|De- i, qui|tol- lis pec-|ca- ta|mun-|di:|
 (A,2 B,2) (C2 D2) | E4 =E4 | F4 D4 | C4 A,4 | B,6 B,2 | C4 D4 | C8 | F8 ||!mf! D4 C4 | %33
w: mi- * se- *|re- re,|mi~~~\- se-|re- re,|mi- se-|re- re|no-|bis.|A- gnus|
 B,4 A,2 A2 | A2 A>A G2 F2 | C4 C4 |!p! D4 B,4 | (C2 B,2) (A,2 B,2) | C8 | F8 |] %40
w: De- i, qui|tol- lis pec- ca- ta|mun- di:|do- na|no- * bis *|pa-|cem.|
V:3
 [FAc]4 [Ac]4 | ([FA]2 [CF]2) ([FA]2 [Ac]2) | ([Bd]4 [FB]4) | (A2 G2) G2 G2 | %4
w: ||||
 ([EA]4 [EGB]3) [EGB] | (((([EAc]4 [FAd]4)))) | ([Ac]4 [GB]4 | [CA]8) | [Ac]6 [Ac]2 | [Ac]4 [GB]4 | %10
w: ||||||
 [FA]2 G2 A2 B2 | c4 c4 | (d6 d2 | c4 F4) | ([FA]4 [=EG]4 | F8) || ([CA]6 [DB]2) | ([CA]4 [B,G]4) | %18
w: ||||||||
 ([B,EB]4 [B,D]4) | (D2 C2) z2 E2 | ([EA]4 [DG]2 [EA]2) | ([DF]4 B2 A2) | ([E-A]4 G4 | [CA]8) | %24
w: ||||||
 [Ac]6 [Ac]2 | ([EAc]4 [CGB]4) | ([FA]2 G2 A2 B2) | c4 c4 | (d6 d2 | c4 F4) | ([FA]4 [=EG]4 | %31
w: |||||||
 F8) || ([FAdf]4 e4 | d4 c2) c2 | [Fc]2 c>c c4 | [=EG]4 [EG]4 | (F2 A2 G2 F2) | (=E2 d2 c2 [GB]2) | %38
w: |mf *||||||
 ([FA]4 [=EG]4 | [A,F]8) |] %40
w: ||
V:4
 C4 F4 | C2 A,2 (C2 F2) | F4 D4 | E4 E4 | x8 | x8 | E4- E2 D2 | x8 | (E2 D2 E2 F2) | E4 C4 | %10
 C4 F4 | (=E4 F4) | F4 _G2 F2 | =E4 F4 | x8 | x8 || E8 | E8 | x8 | x8 | x8 | x4 D2 C2 | x4 E2 D2 | %23
 x8 | (E2 D2 E2 F2) | x8 | (C4 F4) | (=E4 F4) | F4 _G2 F2 | =E4 F4 | x8 | x8 || x4 A4 | %33
 [FA]2 [EG]2 [EA]4 | C2 C2 [=EB]2 [FA]2 | C4 C4 | F4 D4 | C2 =E2 F2 D2 | C4 C2 B,2 | x8 |] %40
V:5
 x8 | x8 | x8 | x8 | x8 | x8 | x8 | x8 | x8 | x8 | x8 | x8 | x8 | x8 | x8 | x8 || x8 | x8 | x8 | %19
 x8 | x8 | x4 F4 | x8 | x8 | x8 | x8 | x8 | x8 | x8 | x8 | x8 | x8 || x8 | x8 | x2 F2 x4 | x8 | %36
 x8 | x8 | x8 | x8 |] %40
V:6
!p!"^Larghetto" [F,,F,]8- | [F,,F,]8 | (B,,4 D,4) | (C2 B,2) B,4 | (A,2 C2) x4 | (A,4 D,4) | %6
 E,4 E,,4 | [A,,E,]8 | (A,,2 B,,2 C,2 D,2) | (E,4 =E,4) | x4 F,4 | ((G,4 F,4)) | (F,4 B,2 A,2 | %13
 G,2 B,2 A,4) | C6 B,2 | [F,,C,F,A,]8 || A,,8 | [E,,E,]8 | [G,,E,]4 [G,,E,-]4 | [E,A,]4 z4 | %20
 (C4 B,2 A,2) | A,4 x4 | B,4 B,4 | [A,,E,A,]8 | (A,,2 B,,2 C,2 D,2) | (E,4 =E,4) | F,4- [D,F,]4 | %27
 (G,4 F,4) | (F,4 B,2 A,2 | G,2 B,2 A,4) | C4- C2 B,2 | [F,,C,F,A,]8 || ([D,D]4 [C,C]4 | %33
 [B,,B,]4 [A,,A,]4) | [A,,A,]2 ([A,,A,]2 [G,,G,]2 [F,,F,]2) | C,4 C,4 |!p! A,2 F,2 B,2 A,2 | %37
 G,4 A,2 x2 | C,4 [C,,C,-]4 | [F,,C,F,]8 |] %40
V:7
 x8 | x8 | x8 | E,4 D,4 | (C,2 A,,2) E,4 | x8 | E,8- | x8 | x8 | x8 | (F,4 D,4) | (C,4 A,,4) | %12
 B,,8 | C,4 D,4 | C,8- | x8 || x8 | x8 | x8 | A,,4 A,,2 z2 | (A,,4 B,,2 C,2) | D,8 | [E,,E,]8 | %23
 x8 | x8 | x8 | x8 | (C,4 A,,4) | B,,8 | C,4 D,4 | [C,,C,-]8 | x8 || x8 | x8 | x8 | x8 | %36
 (D,4 (B,,4) | (C,2) B,,2) (A,,2 B,,2) | x8 | x8 |] %40

